X:1
T:Carnal and the Crane
M:4/4
L:1/8
K:D
D-E| F2F-E F2F-E| E- F2 E D2 D2| E2 E2 A2A-G| F4 z2 A2| A- B2 AG-FE-D|\
 F2G-A A2 d2| B2 G2 E2E-D| D4 z4|
